X: 1
T: Angus Mackenzie's
C: Fraser Shaw
R: reel
M: 4/4
L: 1/8
K: Amaj
|: A2AB cBAB | ceee ecBA | efff fece | fAaf ecBc |
A2AB cBAB | ceee ecBA | effe afef | ceBc A4 :||
|: fcc2 eBB2 | BccB A2AB | ceee ecBA | effe afef |
fcc2 eBB2 | BccB A2AB | ceee feaf | ecBcA4 :||
